docs/assets/icons/web.svg

<?xml version="1.0" encoding="UTF-8" standalone="no"?>
<svg
   id="mdi-web"
   viewBox="0 0 24 24"
   version="1.1"
   sodipodi:docname="web.svg"
   inkscape:version="1.4.3 (0d15f75042, 2025-12-25)"
   xmlns:inkscape="http://www.inkscape.org/namespaces/inkscape"
   xmlns:sodipodi="http://sodipodi.sourceforge.net/DTD/sodipodi-0.dtd"
   xmlns="http://www.w3.org/2000/svg"
   xmlns:svg="http://www.w3.org/2000/svg">
  <defs
     id="defs1">
    <filter
       style="color-interpolation-filters:sRGB;"
       inkscape:label="Drop Shadow"
       id="filter3"
       x="-0.051000002"
       y="-0.051000002"
       width="1.127"
       height="1.127">
      <feFlood
         result="flood"
         in="SourceGraphic"
         flood-opacity="0.498039"
         flood-color="rgb(0,0,0)"
         id="feFlood2" />
      <feGaussianBlur
         result="blur"
         in="SourceGraphic"
         stdDeviation="0.300000"
         id="feGaussianBlur2" />
      <feOffset
         result="offset"
         in="blur"
         dx="0.500000"
         dy="0.500000"
         id="feOffset2" />
      <feComposite
         result="comp1"
         operator="in"
         in="flood"
         in2="offset"
         id="feComposite2" />
      <feComposite
         result="comp2"
         operator="over"
         in="SourceGraphic"
         in2="comp1"
         id="feComposite3" />
    </filter>
  </defs>
  <sodipodi:namedview
     id="namedview1"
     pagecolor="#505050"
     bordercolor="#ffffff"
     borderopacity="1"
     inkscape:showpageshadow="0"
     inkscape:pageopacity="0"
     inkscape:pagecheckerboard="1"
     inkscape:deskcolor="#505050"
     inkscape:zoom="34.176828"
     inkscape:cx="10.69438"
     inkscape:cy="11.147904"
     inkscape:window-width="2560"
     inkscape:window-height="1368"
     inkscape:window-x="0"
     inkscape:window-y="0"
     inkscape:window-maximized="1"
     inkscape:current-layer="mdi-web" />
  <path
     id="path1"
     style="fill:#0091eb;fill-opacity:1;stroke:#4cae4f;stroke-width:0.680961;stroke-linecap:round;stroke-linejoin:round;stroke-dasharray:none;stroke-opacity:1;paint-order:normal"
     d="M 12,0.65065012 C 5.7238096,0.65065012 0.65065011,5.7578577 0.65065011,12 A 11.34935,11.34935 0 0 0 12,23.34935 11.34935,11.34935 0 0 0 23.34935,12 11.34935,11.34935 0 0 0 12,0.65065012 Z m 0,2.30312008 c 0.941996,1.361922 1.70258,2.8835329 2.167903,4.50649 H 9.832097 C 10.297421,5.8373031 11.058005,4.3156922 12,2.9537702 Z M 9.0496124,3.4192708 C 8.3686515,4.6790487 7.8574874,6.0415914 7.4602602,7.4602602 H 4.1463386 C 5.2245269,5.5762681 6.9726815,4.1229305 9.0496124,3.4192708 Z m 5.8896926,0 c 2.088281,0.7150091 3.82482,2.1569973 4.914357,4.0409894 H 16.50649 C 16.143311,6.0415914 15.620266,4.6790487 14.939305,3.4192708 Z M 3.2153372,9.7301301 H 7.0523929 C 6.9615978,10.479187 6.8927927,11.228245 6.8927927,12 c 0,0.771756 0.068805,1.520813 0.1596002,2.26987 H 3.2153372 C 3.0337476,13.543512 2.9205201,12.783105 2.9205201,12 c 0,-0.783105 0.1132275,-1.543511 0.2948171,-2.2698699 z m 6.1290923,0 H 14.655571 C 14.757713,10.467838 14.837338,11.228245 14.837338,12 c 0,0.771756 -0.07962,1.520813 -0.181767,2.26987 H 9.3444295 C 9.2309362,13.520813 9.1626627,12.771756 9.1626627,12 c 0,-0.771755 0.068273,-1.532162 0.1817668,-2.2698699 z m 7.6031775,0 h 3.837056 C 20.966252,10.456489 21.07948,11.216895 21.07948,12 c 0,0.783105 -0.113228,1.543512 -0.294817,2.26987 h -3.837056 c 0.09079,-0.749057 0.159601,-1.498114 0.159601,-2.26987 0,-0.771755 -0.0688,-1.520813 -0.159601,-2.2698699 z M 4.1463386,16.53974 h 3.3139216 c 0.3972272,1.418669 0.9083913,2.781212 1.5893522,4.04099 C 6.9726815,19.865721 5.2245269,18.412383 4.1463386,16.53974 Z m 5.6857584,0 h 4.335806 C 13.70258,18.162697 12.941996,19.673224 12,21.035147 11.058005,19.673225 10.297421,18.162697 9.832097,16.53974 Z m 6.674393,0 h 3.347172 c -1.089537,1.872643 -2.826076,3.325981 -4.914357,4.04099 0.680961,-1.259778 1.204006,-2.622321 1.567185,-4.04099 z" />
</svg>

<?xml version="1.0" encoding="UTF-8"?>
<svg version="1.1" viewBox="0 0 24 24" xmlns="http://www.w3.org/2000/svg"><path d="m12 .65065c-6.2762 0-11.349 5.1072-11.349 11.349a11.349 11.349 0 0011.349 11.349 11.349 11.349 0 0011.349-11.349 11.349 11.349 0 00-11.349-11.349zm0 2.3031c.942 1.3619 1.7026 2.8835 2.1679 4.5065h-4.3358c.46532-1.623 1.2259-3.1446 2.1679-4.5065zm-2.9504.4655c-.68096 1.2598-1.1921 2.6223-1.5894 4.041h-3.3139c1.0782-1.884 2.8263-3.3373 4.9033-4.041zm5.8897 0c2.0883.71501 3.8248 2.157 4.9144 4.041h-3.3472c-.36318-1.4187-.88622-2.7812-1.5672-4.041zm-11.724 6.3109h3.8371c-.090795.74906-.1596 1.4981-.1596 2.2699 0 .77176.068805 1.5208.1596 2.2699h-3.8371c-.18159-.72636-.29482-1.4868-.29482-2.2699s.11323-1.5435.29482-2.2699zm6.1291 0h5.3111c.10214.73771.18177 1.4981.18177 2.2699 0 .77176-.07962 1.5208-.18177 2.2699h-5.3111c-.11349-.74906-.18177-1.4981-.18177-2.2699 0-.77176.068273-1.5322.18177-2.2699zm7.6032 0h3.8371c.18159.72636.29482 1.4868.29482 2.2699s-.11323 1.5435-.29482 2.2699h-3.8371c.09079-.74906.1596-1.4981.1596-2.2699 0-.77176-.0688-1.5208-.1596-2.2699zm-12.801 6.8096h3.3139c.39723 1.4187.90839 2.7812 1.5894 4.041-2.0769-.71501-3.8251-2.1683-4.9033-4.041zm5.6858 0h4.3358c-.46532 1.623-1.2259 3.1335-2.1679 4.4954-.942-1.3619-1.7026-2.8724-2.1679-4.4954zm6.6744 0h3.3472c-1.0895 1.8726-2.8261 3.326-4.9144 4.041.68096-1.2598 1.204-2.6223 1.5672-4.041z" fill="#0091eb" stroke="#4cae4f" stroke-linecap="round" stroke-linejoin="round" stroke-width=".4" style="paint-order:normal"/></svg>
